src/assets/svg/notifications.svg

<svg width="24" height="24" viewBox="0 0 24 24" fill="none" xmlns="http://www.w3.org/2000/svg">
<g clip-path="url(#clip0_1_4)">
<path d="M19.29 17.29L18 16V11C18 7.93 16.36 5.36 13.5 4.68V4C13.5 3.17 12.83 2.5 12 2.5C11.17 2.5 10.5 3.17 10.5 4V4.68C7.62999 5.36 5.99999 7.92 5.99999 11V16L4.70999 17.29C4.07999 17.92 4.51999 19 5.40999 19H18.58C19.48 19 19.92 17.92 19.29 17.29ZM16 17H7.99999V11C7.99999 8.52 9.50999 6.5 12 6.5C14.49 6.5 16 8.52 16 11V17ZM12 22C13.1 22 14 21.1 14 20H9.99999C9.99999 21.1 10.89 22 12 22Z" fill="white"/>
</g>
<defs>
<clipPath id="clip0_1_4">
<rect width="24" height="24" fill="white"/>
</clipPath>
</defs>
</svg>

<svg xmlns="http://www.w3.org/2000/svg" width="24" height="24" viewBox="0 0 24 24"><path fill="none" d="M0 0h24v24H0V0z"/><path d="M19.29 17.29L18 16v-5c0-3.07-1.64-5.64-4.5-6.32V4c0-.83-.67-1.5-1.5-1.5s-1.5.67-1.5 1.5v.68C7.63 5.36 6 7.92 6 11v5l-1.29 1.29c-.63.63-.19 1.71.7 1.71h13.17c.9 0 1.34-1.08.71-1.71zM16 17H8v-6c0-2.48 1.51-4.5 4-4.5s4 2.02 4 4.5v6zm-4 5c1.1 0 2-.9 2-2h-4c0 1.1.89 2 2 2z"/></svg>
